X:1
T:Sweet Violets
M:3/4
L:1/4
K:Bb
 F| d- c B| c B G| F D2-| D2 F| d c B| B A B| c3-| c2 F| d c B| c- B G|\
 F C2-| C2 F/2F/2| G c B| A G A| d3| d2 c| B3-| B2 z| d2 d| e2 d| d c2-|\
 c2 z| c c c| A A A| c- c c| A3| f g f| e d c| d3| d2 c| B3-| B2 z|\


